X:54
T:The Peeler and the Goat
B:Terry "Cuz" Teahan "Sliabh Luachra on Parade" 1980
Z:Patrick Cavanagh
M:12/8
L:1/8
R:Slide
K:D
F | G2E F2D E2F G2A | BcB A2G F2D D2F | 
G2E F2D E2F G2A | BcB cBA B2E E2 :| 
B | d2B cBA B2e e2e | d2B A2G F2D D2F | 
G2E F2D E2F G2A | BcB cBA B2E E2 :|| 

